pix_core/e/row_props.svg

<svg height="16" preserveAspectRatio="xMinYMid meet" viewBox="0 -1 16 16" width="16" xmlns="http://www.w3.org/2000/svg"><path d="m0 0v14h16v-14zm5 13h-4v-3h4zm0-8h-4v-3h4zm5 8h-4v-3h4zm0-8h-4v-3h4zm5 8h-4v-3h4zm0-8h-4v-3h4z" fill="#888"/></svg>

<!DOCTYPE svg PUBLIC "-//W3C//DTD SVG 1.1//EN" "http://www.w3.org/Graphics/SVG/1.1/DTD/svg11.dtd" [
	<!ENTITY ns_flows "http://ns.adobe.com/Flows/1.0/">
]><svg xmlns="http://www.w3.org/2000/svg" width="16" height="16" viewBox="0 -1 16 16" preserveAspectRatio="xMinYMid meet" overflow="visible"><path fill="#fff" d="M0 0v14h16V0H0zm5 13H1v-3h4v3zm0-8H1V2h4v3zm5 8H6v-3h4v3zm0-8H6V2h4v3zm5 8h-4v-3h4v3zm0-8h-4V2h4v3z" fill="#888"/></svg>
